packages/design-system/src/icons/assets/logo_footer.svg

<svg width="77" height="24" viewBox="0 0 77 24" fill="none" xmlns="http://www.w3.org/2000/svg">
<path fill-rule="evenodd" clip-rule="evenodd" d="M12.7534 4.42269L10.4088 6.77295V3.5H6.18856V6.77295L3.91923 4.49813L0.932047 7.48674L3.1377 9.69772H0V11.6302H6.33908C6.74431 11.6302 7.14955 11.5315 7.46795 11.2762C8.27264 10.6378 8.41158 9.40756 8.41158 7.0457C8.41158 9.40756 8.55052 10.6378 9.3552 11.2762C9.6736 11.5257 10.0846 11.6302 10.4841 11.6302H16.7942V9.74995L16.7421 9.69772H13.4539L15.7348 7.41129L12.7476 4.41689L12.7534 4.42269ZM16.8 12.164H10.623C10.3509 12.164 10.0731 12.2163 9.82412 12.3265C8.60262 12.8778 8.41737 14.0617 8.41737 16.8181C8.41737 15.0656 8.16265 13.8702 7.74583 13.1216C7.40427 12.5122 6.73852 12.164 6.03804 12.164H0V13.934H3.26506L0.943625 16.261L3.93081 19.2554L6.18856 16.9922V20.3H10.4088V16.9922L12.8055 19.3947H12.8171L15.7927 16.4061L13.3323 13.9398H16.8V12.1698V12.164Z" fill="#C5C6CB"/>
<path d="M24.3058 18.6552C22.9347 18.6552 21.7881 18.1941 20.866 17.272C19.956 16.3499 19.501 15.2093 19.501 13.8504C19.501 12.4915 19.956 11.3509 20.866 10.4288C21.7881 9.50666 22.9347 9.04559 24.3058 9.04559C25.1915 9.04559 25.9984 9.25792 26.7264 9.68259C27.4544 10.1073 28.0065 10.6775 28.3826 11.3934L26.3624 12.5764C26.1804 12.2003 25.9013 11.903 25.5252 11.6846C25.1612 11.4662 24.7487 11.357 24.2876 11.357C23.5839 11.357 23.0015 11.5936 22.5404 12.0668C22.0793 12.5279 21.8488 13.1224 21.8488 13.8504C21.8488 14.5663 22.0793 15.1608 22.5404 15.634C23.0015 16.0951 23.5839 16.3256 24.2876 16.3256C24.7608 16.3256 25.1794 16.2225 25.5434 16.0162C25.9195 15.7978 26.1986 15.5005 26.3806 15.1244L28.419 16.2892C28.0186 17.0051 27.4544 17.5814 26.7264 18.0182C25.9984 18.4429 25.1915 18.6552 24.3058 18.6552ZM37.0897 17.272C36.1555 18.1941 35.0149 18.6552 33.6681 18.6552C32.3213 18.6552 31.1808 18.1941 30.2465 17.272C29.3244 16.3377 28.8633 15.1972 28.8633 13.8504C28.8633 12.5036 29.3244 11.3691 30.2465 10.447C31.1808 9.51272 32.3213 9.04559 33.6681 9.04559C35.0149 9.04559 36.1555 9.51272 37.0897 10.447C38.024 11.3691 38.4911 12.5036 38.4911 13.8504C38.4911 15.1972 38.024 16.3377 37.0897 17.272ZM31.9027 15.6522C32.3759 16.1254 32.9644 16.362 33.6681 16.362C34.3719 16.362 34.9603 16.1254 35.4335 15.6522C35.9067 15.179 36.1433 14.5784 36.1433 13.8504C36.1433 13.1224 35.9067 12.5218 35.4335 12.0486C34.9603 11.5754 34.3719 11.3388 33.6681 11.3388C32.9644 11.3388 32.3759 11.5754 31.9027 12.0486C31.4417 12.5218 31.2111 13.1224 31.2111 13.8504C31.2111 14.5784 31.4417 15.179 31.9027 15.6522ZM45.0204 9.04559C46.0153 9.04559 46.8343 9.37926 47.4774 10.0466C48.1326 10.7139 48.4602 11.6361 48.4602 12.813V18.4004H46.1124V13.1042C46.1124 12.4975 45.9486 12.0365 45.621 11.721C45.2934 11.3934 44.8566 11.2296 44.3106 11.2296C43.7039 11.2296 43.2186 11.4177 42.8546 11.7938C42.4906 12.1699 42.3086 12.7341 42.3086 13.4864V18.4004H39.9608V9.30039H42.3086V10.3196C42.8788 9.47026 43.7828 9.04559 45.0204 9.04559ZM54.9967 7.66239C53.7105 7.56532 53.0675 8.08099 53.0675 9.20939V9.30039H54.9967V11.5572H53.0675V18.4004H50.7197V11.5572H49.4093V9.30039H50.7197V9.20939C50.7197 7.92326 51.0776 6.94652 51.7935 6.27919C52.5093 5.61186 53.5771 5.32066 54.9967 5.40559V7.66239ZM58.0829 14.815C58.3983 15.9555 59.2537 16.5258 60.6491 16.5258C61.5469 16.5258 62.2264 16.2225 62.6875 15.6158L64.5803 16.7078C63.6824 18.0061 62.3599 18.6552 60.6127 18.6552C59.1081 18.6552 57.9009 18.2002 56.9909 17.2902C56.0809 16.3802 55.6259 15.2336 55.6259 13.8504C55.6259 12.4793 56.0748 11.3388 56.9727 10.4288C57.8705 9.50666 59.0232 9.04559 60.4307 9.04559C61.7653 9.04559 62.8634 9.50666 63.7249 10.4288C64.5985 11.3509 65.0353 12.4915 65.0353 13.8504C65.0353 14.1537 65.0049 14.4753 64.9443 14.815H58.0829ZM58.0465 12.995H62.6875C62.554 12.3762 62.2749 11.9151 61.8503 11.6118C61.4377 11.3085 60.9645 11.1568 60.4307 11.1568C59.7997 11.1568 59.278 11.3206 58.8655 11.6482C58.4529 11.9637 58.1799 12.4126 58.0465 12.995ZM71.6128 11.5572H69.5562V15.3428C69.5562 15.6583 69.6351 15.8888 69.7928 16.0344C69.9506 16.18 70.1811 16.2649 70.4844 16.2892C70.7878 16.3013 71.1639 16.2953 71.6128 16.271V18.4004C69.9991 18.5824 68.8586 18.4307 68.1912 17.9454C67.536 17.4601 67.2084 16.5925 67.2084 15.3428V11.5572H65.625V9.30039H67.2084V7.46219L69.5562 6.75239V9.30039H71.6128V11.5572ZM74.433 8.20839C74.0447 8.20839 73.705 8.06886 73.4138 7.78979C73.1347 7.49859 72.9952 7.15886 72.9952 6.77059C72.9952 6.38232 73.1347 6.04259 73.4138 5.75139C73.705 5.46019 74.0447 5.31459 74.433 5.31459C74.8334 5.31459 75.1731 5.46019 75.4522 5.75139C75.7434 6.04259 75.889 6.38232 75.889 6.77059C75.889 7.15886 75.7434 7.49859 75.4522 7.78979C75.1731 8.06886 74.8334 8.20839 74.433 8.20839ZM73.2682 18.4004V9.30039H75.616V18.4004H73.2682Z" fill="#93959D"/>
</svg>

<svg xmlns="http://www.w3.org/2000/svg" width="77" height="24" fill="none"><path fill="#C5C6CB" fill-rule="evenodd" d="m12.753 4.423-2.344 2.35V3.5h-4.22v3.273l-2.27-2.275L.932 7.487l2.206 2.21H0v1.933h6.34c.404 0 .81-.099 1.128-.354.805-.638.944-1.868.944-4.23 0 2.362.139 3.592.943 4.23.319.25.73.354 1.13.354h6.31V9.75l-.053-.052h-3.288l2.28-2.287-2.986-2.994zm4.047 7.741h-6.177c-.272 0-.55.052-.799.162-1.221.552-1.407 1.736-1.407 4.492 0-1.752-.254-2.948-.671-3.696-.342-.61-1.007-.958-1.708-.958H0v1.77h3.265L.944 16.261l2.987 2.994 2.258-2.263V20.3h4.22v-3.308l2.396 2.403h.012l2.976-2.989-2.46-2.466H16.8v-1.776" clip-rule="evenodd"/><path fill="#93959D" d="M24.306 18.655q-2.057 0-3.44-1.383-1.365-1.383-1.365-3.422 0-2.038 1.365-3.421 1.383-1.383 3.44-1.383 1.329 0 2.42.637 1.092.637 1.657 1.71l-2.02 1.183a2.05 2.05 0 0 0-.838-.891 2.36 2.36 0 0 0-1.237-.328q-1.056 0-1.748.71-.69.69-.691 1.783 0 1.073.691 1.784.692.692 1.748.692.71 0 1.255-.31.565-.327.838-.892l2.038 1.165a4.6 4.6 0 0 1-1.693 1.73 4.7 4.7 0 0 1-2.42.636m12.784-1.383q-1.401 1.383-3.422 1.383t-3.421-1.383q-1.384-1.401-1.384-3.422 0-2.019 1.384-3.403 1.4-1.401 3.421-1.401t3.422 1.401q1.401 1.384 1.401 3.403t-1.401 3.422m-5.187-1.62q.71.71 1.765.71 1.056 0 1.766-.71t.71-1.802-.71-1.801-1.766-.71-1.765.71q-.692.71-.692 1.801 0 1.092.692 1.802M45.02 9.046q1.492 0 2.457 1 .984 1.002.983 2.767V18.4h-2.348v-5.296q0-.909-.491-1.383-.492-.492-1.31-.491-.91 0-1.456.564t-.546 1.692V18.4H39.96V9.3h2.348v1.02q.855-1.274 2.711-1.274m9.977-1.384q-1.93-.145-1.93 1.547V9.3h1.93v2.257h-1.93V18.4H50.72v-6.843h-1.31V9.3h1.31v-.09q0-1.93 1.074-2.93 1.073-1.003 3.203-.874zm3.086 7.153q.472 1.71 2.566 1.71 1.347.001 2.038-.91l1.893 1.093q-1.347 1.947-3.967 1.947-2.257 0-3.622-1.365t-1.365-3.44q0-2.056 1.347-3.421 1.347-1.383 3.458-1.383 2.001 0 3.294 1.383 1.31 1.384 1.31 3.421 0 .456-.09.965zm-.036-1.82h4.64q-.2-.928-.837-1.383a2.33 2.33 0 0 0-1.42-.455q-.945 0-1.565.491-.618.474-.819 1.347m13.566-1.438h-2.057v3.786q0 .473.237.691t.691.255q.456.018 1.129-.018v2.13q-2.42.272-3.422-.456-.983-.727-.983-2.602v-3.786h-1.583V9.3h1.583V7.462l2.348-.71V9.3h2.057zm2.82-3.349a1.427 1.427 0 0 1-1.438-1.437q0-.583.419-1.02.436-.436 1.019-.436.6 0 1.02.436.436.437.436 1.02 0 .582-.437 1.019-.419.418-1.019.418M73.268 18.4V9.3h2.348v9.1z"/></svg>
